X: 38118
T: Sport Of The Chase, The
R: slip jig
M: 9/8
K: Dmajor
d3 f2d faf|d3 f2d faf|G3 B2G BdB|A3 c2A cec|
d3 f2d faf|d3 f2d faf|G3 B2G BdB|A3 c2A cec||
D3 d2A FAF|D3 d2A FAF|G3 B2G BdB|A3 c2A cec|
dAF dAF dAF|dAF dAF dAF|G3 B2G BdB|A3 c2A cec||

